boxicons/svg/solid/bxs-radiation.svg

<svg xmlns="http://www.w3.org/2000/svg" width="24" height="24" viewBox="0 0 24 24"><path d="M9.912 8.531 7.121 3.877a.501.501 0 0 0-.704-.166 9.982 9.982 0 0 0-4.396 7.604.505.505 0 0 0 .497.528l5.421.09a4.042 4.042 0 0 1 1.973-3.402zm8.109-4.51a.504.504 0 0 0-.729.151L14.499 8.83a4.03 4.03 0 0 1 1.546 3.112l5.419-.09a.507.507 0 0 0 .499-.53 9.986 9.986 0 0 0-3.942-7.301zm-4.067 11.511a4.015 4.015 0 0 1-1.962.526 4.016 4.016 0 0 1-1.963-.526l-2.642 4.755a.5.5 0 0 0 .207.692A9.948 9.948 0 0 0 11.992 22a9.94 9.94 0 0 0 4.396-1.021.5.5 0 0 0 .207-.692l-2.641-4.755z"/><circle cx="12" cy="12" r="3"/></svg>

<svg xmlns="http://www.w3.org/2000/svg" width="24" height="24" viewBox="0 0 24 24"><path d="M9.912 8.531L7.121 3.877C6.976 3.634 6.652 3.553 6.417 3.711 3.93 5.387 2.236 8.146 2.021 11.315c-.019.282.214.523.497.528l5.421.09C7.964 10.483 8.749 9.23 9.912 8.531zM18.021 4.021c-.234-.178-.577-.101-.729.151l-2.793 4.658c.925.732 1.528 1.846 1.546 3.112l5.419-.09c.283-.005.518-.247.499-.53C21.764 8.344 20.264 5.72 18.021 4.021zM13.954 15.532c-.584.325-1.246.526-1.962.526-.717 0-1.379-.201-1.963-.526l-2.642 4.755c-.138.247-.047.567.207.692C8.922 21.631 10.413 22 11.992 22c1.578 0 3.069-.369 4.396-1.021.254-.125.345-.445.207-.692L13.954 15.532z"/><circle cx="12" cy="12" r="3"/></svg>
